src/assets/mail_icon.svg

<svg width="38" height="28" viewBox="0 0 38 28" fill="none" xmlns="http://www.w3.org/2000/svg">
<path d="M31.9853 0H5.15656C2.30882 0 0 2.30882 0 5.15656V22.1304C0 24.9781 2.30882 27.287 5.15656 27.287H31.9853C34.833 27.287 37.1419 24.9781 37.1419 22.1304V5.15656C37.1419 2.30882 34.833 0 31.9853 0ZM12.9247 18.411L5.70375 24.5713C5.19442 25.006 4.42873 24.9456 3.99413 24.4357C3.55945 23.9264 3.61988 23.1607 4.12979 22.7261L11.3507 16.5658C11.8599 16.1311 12.6256 16.1915 13.0602 16.7014C13.4949 17.2107 13.4345 17.9764 12.9247 18.411ZM18.5709 16.069C17.6051 16.0666 16.6689 15.7457 15.9369 15.1127L15.9375 15.1133L15.9352 15.1115C15.9358 15.1121 15.9364 15.1121 15.9369 15.1127L4.85761 5.49649C4.35126 5.05703 4.29736 4.29141 4.73617 3.78572C5.17556 3.27937 5.94125 3.22547 6.44687 3.66428L17.5293 13.2829C17.7662 13.4937 18.1564 13.6459 18.5709 13.6435C18.9849 13.6447 19.3685 13.4967 19.6185 13.2787L19.6238 13.274L30.6949 3.66435C31.2006 3.22554 31.9663 3.27944 32.4057 3.78579C32.8445 4.29141 32.7906 5.0571 32.2843 5.49656L21.2019 15.1157C20.4724 15.7421 19.5374 16.0678 18.5709 16.069ZM33.1483 24.4357C32.7136 24.9456 31.9479 25.006 31.4387 24.5713L24.2178 18.411C23.708 17.9763 23.6476 17.2107 24.0822 16.7014C24.5168 16.1915 25.2825 16.1312 25.7918 16.5658L33.0127 22.7261C33.5225 23.1607 33.5829 23.9264 33.1483 24.4357Z" fill="#D8D8D8"/>
</svg>

<svg xmlns="http://www.w3.org/2000/svg" width="38" height="28" fill="none"><path fill="#D8D8D8" d="M31.985 0H5.157A5.157 5.157 0 0 0 0 5.157V22.13a5.157 5.157 0 0 0 5.157 5.157h26.828a5.157 5.157 0 0 0 5.157-5.157V5.157A5.157 5.157 0 0 0 31.985 0m-19.06 18.411-7.221 6.16a1.212 1.212 0 1 1-1.574-1.845l7.22-6.16a1.212 1.212 0 1 1 1.575 1.845m5.646-2.342c-.966-.002-1.902-.323-2.634-.956l-.002-.002.002.002-11.08-9.617a1.212 1.212 0 1 1 1.59-1.832l11.082 9.619c.237.21.627.363 1.042.36.414.002.797-.146 1.047-.364l.006-.005 11.07-9.61a1.213 1.213 0 1 1 1.59 1.833l-11.082 9.619a4.03 4.03 0 0 1-2.631.953m14.577 8.367c-.434.51-1.2.57-1.71.135l-7.22-6.16a1.212 1.212 0 1 1 1.574-1.845l7.22 6.16c.51.435.57 1.2.136 1.71"/></svg>
